X: 29079
T: Neilidh O'Boyle's
R: strathspey
M: 4/4
K: Gmajor
|:B<dd>B e>fg>e|d>e (3dcB A2 A2|B<dd>B e>fg>e|d>BA>c B<G G2:|
B>dg>b (3agf g>d|B>dg>b a2 a2|B>dg>b (3agf g>e|d>BA>c B<GG2|
B>dg>b (3agf g>d|B>dg>b a2 g>a|(3bag (3agf g>ag>e|d>BA>c B<GG2||

